X: 8
T: Pigtown Fling, The
Z: timbo1001
S: https://thesession.org/tunes/80#setting53622
R: reel
M: 4/4
L: 1/8
K: Gmaj
|:(3DEF|G2 g2 d2 e>d|B2 g2 e>dB>A|G2 g2 d2 e>d |1 c>BA>G E2 :|2 c>BA2 G4 ||
B2e2 e>f g2 |f>g a>f g>fe>d| B2e2 e>f g2| f>ga>f g2 g2|
e2e2 e2e2| f>ga>f g>fe>d|B2 e2 e>f g2|f>ga>f g2 ||

%-------------------- TUNE SEPARATOR --------------------%

